X:1
T:Title
%%score 1 2 3
L:1/8
M:3/2
K:C
V:1 treble nm="Part_1"
V:2 treble-8 nm="Part_2"
V:3 treble-8 nm="Part_3"
V:1
 G4 G2 A2 B4 | c4 B2 A3 G B2 | A3 GFE F2 D4 | G3 FED D3 E F2- | F2 _B2 A2 G4 F2 | G4 z2 D4 E2- | %6
 E2 F2 G2 A4 A2- | A2 B2 c2 d3 cBA | A2 B2 c2 A4 ^G2 | A12 | z4 D4 E4 | F4 G4 A3 G | %12
 FE F3 D D4 C2 | D12 | z12 | F4 E2 F2 G3 F | D4 F6 G2 | A6 G2 A2 F2 | E2 D2 G2 G4 ^F2 | G12 |] %20
V:2
 G8 G4 | A6 B2 c4 | d4 B2 c2 d4 | G12 | D3 E F2 _B2 A4 | G12 | A4 B2 A2 c4 | d4 e2 f2 d4 | %8
 c2 d2 c2 c2 B4 | A8 F4- | F4 !fermata!G8 | D4 E4 D4 | A4 F2 G2 E4 | D12 | F4 E2 F2 G4 | %15
 D4 A4 _B4- | B4 A4 d4- | d2 c2 d2 B2 A3 B | c2 d2 G2 B2 A4 | G12 |] %20
V:3
 d8 d4 | c2 d2 e4 A4 | G2 F2 G2 A2 D4 | B2 c2 d2 _B6 | A2 d8 c2 | d4 B4 z4 | c4 d2 e2 A4 | %7
 F2 G2 E2 D6 | A2 G2 F4 G2 E2 | F4 !fermata!D8 | D4 B8 | A2 d4 c2 d4 | D4 A2 B2 G3 E | A12- | %14
 A4 G2 A2 _B4 | A2 _B2 c3 B G4 | z4 D8- | D12 | A2 Bc d2 G2 D4 | d12 |] %20

